X:141
T:Old Homestead Waltz
R:waltz
C:Bruce Osborne  --  Apr. 1991
Z:abc by Bruce Osborne - bosborne@kos.net
M:3/4
L:1/8
K:D
Ad e|[A2 f2] [A2 f2] [A2 e2]|[F2 d2] [F2 A2] [F2 A2]|(3[B,G][B,A2/3][B,2/3 G2/3] [B,2 G2] [B,2 G2]|[A,4 F4] (3A,DF|\
[F2 d2] [F2 d2] [A2 e2]|[A2 f2] [A2 f2] [d2 f2]|[c4 e4] (3[Be][ce2/3][B2/3 e2/3]|[A3 e3] A de|\
[A2 f2] [A2 f2] [A2 e2]|[F2 d2] [F2 A2] [F2 A2]|(3[B,G][B,A2/3][B,2/3 G2/3] [B,2 G2] [B,2 G2]|[A,4 F4] (3A,DF|\
[F2 d2] [F2 d2] [A2 e2]|[A2 f2] [A2 f2] [F2 d2]|(3[Ae][Af2/3][A2/3 e2/3] [A2 f2] [A2 e2]|[F3 d3]||\
[FA][F B] [F A]|[A, F] [A,4 F4] [A, F]|[B, G] [G,4 G4] [G B]|[F4 A4] (3[EA][FA2/3][E2/3 A2/3]|[D3 A3] (3FAd f|\
[A4 e4] [Ae][A f]|[A3 e3] (3FAd e|(3[Af][Ag2/3][A2/3 f2/3] [A2 f2] [A2 e2]|[F3 d3] [F A] [FB][F A]|\
[A, F] [A,4 F4] [A, F]|[B, G] [G,4 G4] [G B]|[F4 A4] (3[EA][FA2/3][E2/3 A2/3]|[D3 A3] (3FAd f|\
[A4 e4] [Ae][A f]|[A3 e3] F [Fd][A e]|(3[Af][Ag2/3][A2/3 f2/3] [A2 f2] [G2 e2]|[F3 d3]||
